X: 34
T:As Sweet As A Pink,Gigg. BF13.033
M:2/2
L:1/8
Q:150
S:J.Lishman()MS,c1825,Lakes,Browne Coll.
R:Reel
O:England
A:Lakes
Z:vmp.Cherri Graebe.
K:F major
"crot"B|A/B/c gc dcfc|A/B/c fc dcdf|!
A/B/c fc fg ag|fdcAF2F:|!
|:A/B/|c>FA>F c>FBd|cF (d/c/B/A/) G2 GA/B/|!
cFAc gaga|fdcAF2F:|]
